X: 424
%
U:~=!turn!
T: Miss Sally Hunter of Thurston's Jig
C:Nath. Gow
O:Scotland
B:Keith Norman MacDonald : "The Skye collection of the best reels & strathspeys extant" : 1887
Z:Ralph Palmer
R:Jig
M:6/8
L:1/8
K:D
A |\
DFA Td2A | TB2A Td2A | Bcd egf | efd cBA | DFA d2A | TB2A Bcd | egf edc | Td3 D2 :|
g |\
fed Tg2e | c'2a d'2b | Tfef def | efd TcBA | fed g2e | a2f b2g | Tfga Adc | Td3 d2g |
fdf geg | afa bgb | afd Bcd | efd {/c}cBA | AFA Td2A | TB2A Bcd| egf edc | Td3 D2 |]


